my-project/dist/assets/images/Onlyfans-icon-circle (1).svg

<?xml version="1.0" encoding="UTF-8"?>
<svg xmlns="http://www.w3.org/2000/svg" xmlns:xlink="http://www.w3.org/1999/xlink" width="25px" height="25px" viewBox="0 0 25 25" version="1.1">
<defs>
<filter id="alpha" filterUnits="objectBoundingBox" x="0%" y="0%" width="100%" height="100%">
  <feColorMatrix type="matrix" in="SourceGraphic" values="0 0 0 0 1 0 0 0 0 1 0 0 0 0 1 0 0 0 1 0"/>
</filter>
<mask id="mask0">
  <g filter="url(#alpha)">
<rect x="0" y="0" width="25" height="25" style="fill:rgb(0%,0%,0%);fill-opacity:0.8;stroke:none;"/>
  </g>
</mask>
<clipPath id="clip1">
  <rect x="0" y="0" width="25" height="25"/>
</clipPath>
<g id="surface5" clip-path="url(#clip1)">
<path style=" stroke:none;fill-rule:nonzero;fill:rgb(100%,100%,100%);fill-opacity:1;" d="M 9.773438 14.917969 C 8.871094 14.917969 8.132812 14.179688 8.132812 13.28125 C 8.132812 12.378906 8.871094 11.640625 9.773438 11.640625 C 10.671875 11.640625 11.410156 12.378906 11.410156 13.28125 C 11.410156 13.710938 11.238281 14.125 10.925781 14.433594 C 10.617188 14.746094 10.203125 14.917969 9.773438 14.917969 Z M 9.773438 7.808594 C 6.746094 7.808594 4.300781 10.253906 4.300781 13.28125 C 4.300781 16.304688 6.746094 18.75 9.773438 18.75 C 12.796875 18.75 15.242188 16.304688 15.242188 13.28125 C 15.226562 10.253906 12.78125 7.808594 9.773438 7.808594 Z M 9.773438 7.808594 "/>
</g>
</defs>
<g id="surface1">
<path style=" stroke:none;fill-rule:nonzero;fill:rgb(0%,68.627451%,94.117647%);fill-opacity:1;" d="M 25 12.5 C 25 12.703125 25 12.902344 24.988281 13.117188 C 24.972656 13.320312 24.960938 13.523438 24.945312 13.738281 C 24.933594 13.9375 24.90625 14.140625 24.867188 14.339844 C 24.839844 14.542969 24.796875 14.746094 24.757812 14.945312 C 24.71875 15.148438 24.675781 15.347656 24.625 15.550781 C 24.570312 15.753906 24.515625 15.941406 24.460938 16.140625 C 24.410156 16.34375 24.339844 16.53125 24.273438 16.71875 C 24.207031 16.910156 24.125 17.109375 24.058594 17.296875 C 23.976562 17.488281 23.898438 17.675781 23.816406 17.863281 C 23.722656 18.050781 23.640625 18.226562 23.535156 18.414062 C 23.441406 18.589844 23.332031 18.777344 23.238281 18.953125 C 23.132812 19.125 23.023438 19.300781 22.917969 19.476562 C 22.808594 19.652344 22.6875 19.8125 22.566406 19.972656 C 22.445312 20.132812 22.324219 20.296875 22.191406 20.457031 C 22.054688 20.617188 21.921875 20.765625 21.789062 20.925781 C 21.652344 21.074219 21.503906 21.222656 21.371094 21.371094 C 21.222656 21.519531 21.074219 21.652344 20.925781 21.789062 C 20.78125 21.921875 20.617188 22.054688 20.457031 22.191406 C 20.296875 22.324219 20.132812 22.445312 19.972656 22.566406 C 19.8125 22.6875 19.636719 22.808594 19.476562 22.917969 C 19.300781 23.023438 19.125 23.144531 18.953125 23.238281 C 18.777344 23.347656 18.601562 23.441406 18.414062 23.535156 C 18.238281 23.628906 18.050781 23.722656 17.863281 23.816406 C 17.675781 23.910156 17.488281 23.992188 17.296875 24.058594 C 17.109375 24.140625 16.921875 24.207031 16.71875 24.273438 C 16.53125 24.339844 16.332031 24.410156 16.140625 24.460938 C 15.953125 24.515625 15.753906 24.570312 15.550781 24.625 C 15.347656 24.675781 15.148438 24.71875 14.945312 24.757812 C 14.746094 24.796875 14.542969 24.839844 14.339844 24.867188 C 14.140625 24.890625 13.9375 24.917969 13.738281 24.945312 C 13.535156 24.960938 13.332031 24.988281 13.117188 24.988281 C 12.917969 25 12.714844 25 12.5 25 C 12.296875 25 12.097656 25 11.882812 24.988281 C 11.679688 24.972656 11.476562 24.960938 11.261719 24.945312 C 11.0625 24.933594 10.859375 24.90625 10.660156 24.867188 C 10.457031 24.839844 10.253906 24.796875 10.054688 24.757812 C 9.851562 24.71875 9.652344 24.675781 9.449219 24.625 C 9.246094 24.570312 9.058594 24.515625 8.859375 24.460938 C 8.65625 24.410156 8.46875 24.339844 8.28125 24.273438 C 8.089844 24.207031 7.890625 24.125 7.703125 24.058594 C 7.511719 23.976562 7.324219 23.898438 7.136719 23.816406 C 6.949219 23.722656 6.773438 23.640625 6.585938 23.535156 C 6.410156 23.441406 6.222656 23.332031 6.046875 23.238281 C 5.875 23.132812 5.699219 23.023438 5.523438 22.917969 C 5.347656 22.808594 5.1875 22.6875 5.027344 22.566406 C 4.867188 22.445312 4.703125 22.324219 4.542969 22.191406 C 4.382812 22.054688 4.234375 21.921875 4.074219 21.789062 C 3.925781 21.652344 3.777344 21.503906 3.628906 21.371094 C 3.480469 21.222656 3.347656 21.074219 3.210938 20.925781 C 3.078125 20.78125 2.945312 20.617188 2.808594 20.457031 C 2.675781 20.296875 2.554688 20.132812 2.433594 19.972656 C 2.3125 19.8125 2.191406 19.636719 2.082031 19.476562 C 1.976562 19.300781 1.855469 19.125 1.761719 18.953125 C 1.652344 18.777344 1.558594 18.601562 1.464844 18.414062 C 1.371094 18.238281 1.277344 18.050781 1.183594 17.863281 C 1.089844 17.675781 1.007812 17.488281 0.941406 17.296875 C 0.859375 17.109375 0.792969 16.921875 0.726562 16.71875 C 0.660156 16.53125 0.589844 16.332031 0.539062 16.140625 C 0.484375 15.953125 0.429688 15.753906 0.375 15.550781 C 0.324219 15.347656 0.28125 15.148438 0.242188 14.945312 C 0.203125 14.746094 0.160156 14.542969 0.132812 14.339844 C 0.109375 14.140625 0.0820312 13.9375 0.0546875 13.738281 C 0.0390625 13.535156 0.0117188 13.332031 0.0117188 13.117188 C 0 12.902344 0 12.703125 0 12.5 C 0 12.296875 0 12.097656 0.0117188 11.882812 C 0.0273438 11.679688 0.0390625 11.476562 0.0546875 11.261719 C 0.0664062 11.0625 0.09375 10.859375 0.132812 10.660156 C 0.175781 10.457031 0.203125 10.253906 0.242188 10.054688 C 0.28125 9.851562 0.324219 9.652344 0.375 9.449219 C 0.429688 9.261719 0.484375 9.074219 0.539062 8.871094 C 0.589844 8.667969 0.660156 8.480469 0.726562 8.292969 C 0.792969 8.105469 0.875 7.902344 0.941406 7.714844 C 1.023438 7.527344 1.101562 7.339844 1.183594 7.152344 C 1.261719 6.960938 1.359375 6.789062 1.464844 6.597656 C 1.558594 6.425781 1.667969 6.238281 1.761719 6.0625 C 1.855469 5.886719 1.976562 5.710938 2.082031 5.539062 C 2.191406 5.363281 2.3125 5.203125 2.433594 5.039062 C 2.554688 4.878906 2.675781 4.71875 2.808594 4.554688 C 2.945312 4.394531 3.078125 4.246094 3.210938 4.085938 C 3.347656 3.9375 3.496094 3.789062 3.628906 3.640625 C 3.777344 3.496094 3.925781 3.359375 4.074219 3.226562 C 4.21875 3.089844 4.382812 2.957031 4.542969 2.824219 C 4.703125 2.6875 4.867188 2.566406 5.027344 2.445312 C 5.1875 2.324219 5.363281 2.203125 5.523438 2.097656 C 5.683594 1.988281 5.875 1.867188 6.046875 1.773438 C 6.222656 1.679688 6.398438 1.574219 6.585938 1.476562 C 6.761719 1.382812 6.949219 1.289062 7.136719 1.195312 C 7.324219 1.101562 7.511719 1.023438 7.703125 0.953125 C 7.890625 0.875 8.078125 0.804688 8.28125 0.738281 C 8.46875 0.671875 8.667969 0.605469 8.859375 0.550781 C 9.058594 0.496094 9.246094 0.445312 9.449219 0.390625 C 9.652344 0.335938 9.851562 0.296875 10.054688 0.253906 C 10.253906 0.214844 10.457031 0.175781 10.660156 0.148438 C 10.859375 0.121094 11.0625 0.09375 11.261719 0.0664062 C 11.464844 0.0546875 11.667969 0.0273438 11.882812 0.0273438 C 12.097656 0 12.296875 0 12.5 0 C 12.703125 0 12.902344 0 13.117188 0.0117188 C 13.320312 0.0273438 13.523438 0.0390625 13.738281 0.0546875 C 13.9375 0.0664062 14.140625 0.09375 14.339844 0.132812 C 14.542969 0.160156 14.746094 0.203125 14.945312 0.242188 C 15.148438 0.28125 15.347656 0.324219 15.550781 0.375 C 15.753906 0.429688 15.941406 0.484375 16.140625 0.539062 C 16.34375 0.589844 16.53125 0.660156 16.71875 0.726562 C 16.910156 0.792969 17.109375 0.875 17.296875 0.941406 C 17.488281 1.023438 17.675781 1.101562 17.863281 1.183594 C 18.050781 1.261719 18.226562 1.359375 18.414062 1.464844 C 18.589844 1.558594 18.777344 1.667969 18.953125 1.761719 C 19.125 1.855469 19.300781 1.976562 19.476562 2.082031 C 19.652344 2.191406 19.8125 2.3125 19.972656 2.433594 C 20.132812 2.554688 20.296875 2.675781 20.457031 2.808594 C 20.617188 2.945312 20.765625 3.078125 20.925781 3.210938 C 21.074219 3.347656 21.222656 3.496094 21.371094 3.628906 C 21.519531 3.777344 21.652344 3.925781 21.789062 4.074219 C 21.921875 4.21875 22.054688 4.382812 22.191406 4.542969 C 22.324219 4.703125 22.445312 4.867188 22.566406 5.027344 C 22.6875 5.1875 22.808594 5.363281 22.917969 5.523438 C 23.023438 5.699219 23.144531 5.875 23.238281 6.046875 C 23.332031 6.222656 23.441406 6.398438 23.535156 6.585938 C 23.628906 6.761719 23.722656 6.949219 23.816406 7.136719 C 23.910156 7.324219 23.992188 7.511719 24.058594 7.703125 C 24.140625 7.890625 24.207031 8.078125 24.273438 8.28125 C 24.339844 8.46875 24.410156 8.667969 24.460938 8.859375 C 24.515625 9.058594 24.570312 9.246094 24.625 9.449219 C 24.675781 9.652344 24.71875 9.851562 24.757812 10.054688 C 24.796875 10.253906 24.839844 10.457031 24.867188 10.660156 C 24.890625 10.859375 24.917969 11.0625 24.945312 11.261719 C 24.960938 11.464844 24.988281 11.667969 24.988281 11.882812 C 25 12.097656 25 12.296875 25 12.5 Z M 25 12.5 "/>
<use xlink:href="#surface5" mask="url(#mask0)"/>
<path style=" stroke:none;fill-rule:nonzero;fill:rgb(100%,100%,100%);fill-opacity:1;" d="M 15.914062 11.910156 C 17.296875 12.3125 18.9375 11.910156 18.9375 11.910156 C 18.46875 13.992188 16.949219 15.28125 14.773438 15.445312 C 13.910156 17.445312 11.933594 18.738281 9.757812 18.738281 L 11.398438 13.523438 C 13.089844 8.160156 13.953125 7.796875 17.945312 7.796875 L 20.699219 7.796875 C 20.242188 9.839844 18.65625 11.382812 15.914062 11.910156 Z M 15.914062 11.910156 "/>
</g>
</svg>

<svg xmlns="http://www.w3.org/2000/svg" xmlns:xlink="http://www.w3.org/1999/xlink" width="25" height="25"><defs><clipPath id="clip1"><path d="M0 0h25v25H0z"/></clipPath><filter id="alpha" filterUnits="objectBoundingBox" x="0%" y="0%" width="100%" height="100%"><feColorMatrix in="SourceGraphic" values="0 0 0 0 1 0 0 0 0 1 0 0 0 0 1 0 0 0 1 0"/></filter><mask id="mask0"><g filter="url(#alpha)"><path fill-opacity=".8" d="M0 0h25v25H0z"/></g></mask><g id="surface5" clip-path="url(#clip1)"><path d="M9.773 14.918c-.902 0-1.64-.738-1.64-1.637 0-.902.738-1.64 1.64-1.64.899 0 1.637.738 1.637 1.64 0 .43-.172.844-.484 1.153a1.617 1.617 0 01-1.153.484zm0-7.11a5.466 5.466 0 00-5.472 5.473 5.466 5.466 0 005.472 5.469 5.465 5.465 0 005.47-5.469c-.016-3.027-2.462-5.472-5.47-5.472zm0 0" fill="#fff"/></g></defs><g id="surface1"><path d="M25 12.5c0 .203 0 .402-.012.617-.015.203-.027.406-.043.621-.011.2-.039.403-.078.602-.027.203-.07.406-.11.605-.038.203-.081.403-.132.606-.055.203-.11.39-.164.59-.05.203-.121.39-.188.578-.066.191-.148.39-.214.578-.082.191-.16.379-.243.566-.093.188-.175.364-.28.551-.095.176-.204.363-.298.54-.105.171-.215.347-.32.523-.11.175-.23.335-.352.496-.12.16-.242.324-.375.484-.136.16-.27.309-.402.469-.137.148-.285.297-.418.445-.148.149-.297.281-.445.418-.145.133-.309.266-.469.402-.16.133-.324.254-.484.375-.16.122-.336.243-.496.352-.176.105-.352.227-.524.32-.176.11-.351.203-.539.297-.176.094-.363.188-.55.281a4.746 4.746 0 01-.567.243 6.315 6.315 0 01-.578.214 7.666 7.666 0 01-.578.188 11.19 11.19 0 01-1.195.297c-.2.039-.403.082-.606.11-.2.023-.402.05-.602.077-.203.016-.406.043-.62.043-.2.012-.403.012-.618.012-.203 0-.402 0-.617-.012-.203-.015-.406-.027-.621-.043a4.408 4.408 0 01-.602-.078c-.203-.027-.406-.07-.605-.11a11.19 11.19 0 01-.606-.132c-.203-.055-.39-.11-.59-.164-.203-.05-.39-.121-.578-.188-.191-.066-.39-.148-.578-.214-.191-.082-.379-.16-.566-.243-.188-.093-.364-.175-.551-.28-.176-.095-.363-.204-.54-.298-.171-.105-.347-.215-.523-.32a6.63 6.63 0 01-.496-.352c-.16-.12-.324-.242-.484-.375-.16-.136-.309-.27-.469-.402-.148-.137-.297-.285-.445-.418-.149-.148-.281-.297-.418-.445-.133-.145-.266-.309-.402-.469-.133-.16-.254-.324-.375-.484-.122-.16-.243-.336-.352-.496-.105-.176-.227-.352-.32-.524a6.531 6.531 0 01-.297-.539 21.567 21.567 0 01-.281-.55 4.746 4.746 0 01-.243-.567 6.315 6.315 0 01-.214-.578 7.666 7.666 0 01-.188-.578 11.19 11.19 0 01-.297-1.195c-.039-.2-.082-.403-.11-.606-.023-.2-.05-.402-.077-.602-.016-.203-.043-.406-.043-.62C0 12.901 0 12.702 0 12.5s0-.402.012-.617c.015-.203.027-.406.043-.621.011-.2.039-.403.078-.602.043-.203.07-.406.11-.605.038-.203.081-.403.132-.606.055-.187.11-.375.164-.578.05-.203.121-.39.188-.578.066-.188.148-.39.214-.578.082-.188.16-.375.243-.563.078-.191.175-.363.28-.554.095-.172.204-.36.298-.535.093-.176.215-.352.32-.524.11-.176.23-.336.352-.5.12-.16.242-.32.375-.484.136-.16.27-.309.402-.47.137-.147.285-.296.418-.444.148-.145.297-.282.445-.414.145-.137.309-.27.469-.403.16-.136.324-.258.484-.379.16-.12.336-.242.496-.347a6.5 6.5 0 01.524-.325c.176-.093.351-.199.539-.296.176-.094.363-.188.55-.282.188-.093.376-.172.567-.242a7.72 7.72 0 01.578-.215 9.97 9.97 0 01.578-.187c.2-.055.387-.106.59-.16.203-.055.403-.094.606-.137.199-.04.402-.078.605-.106l.602-.082c.203-.011.406-.039.62-.039C12.099 0 12.298 0 12.5 0s.402 0 .617.012c.203.015.406.027.621.043.2.011.403.039.602.078.203.027.406.07.605.11.203.038.403.081.606.132.203.055.39.11.59.164.203.05.39.121.578.188.191.066.39.148.578.214.191.082.379.16.566.243.188.078.364.175.551.28.176.095.363.204.54.298.171.093.347.215.523.32.175.11.335.23.496.352.16.12.324.242.484.375.16.136.309.27.469.402.148.137.297.285.445.418.149.148.281.297.418.445.133.145.266.309.402.469.133.16.254.324.375.484.122.16.243.336.352.496.105.176.227.352.32.524.094.176.203.351.297.539.094.176.188.363.281.55.094.188.176.376.243.567.082.188.148.375.214.578.067.188.137.387.188.578.055.2.11.387.164.59.05.203.094.403.133.606.039.199.082.402.11.605.023.2.05.402.077.602.016.203.043.406.043.62.012.216.012.415.012.618zm0 0" fill="#00aff0"/><use xlink:href="#surface5" mask="url(#mask0)"/><path d="M15.914 11.91c1.383.402 3.024 0 3.024 0-.47 2.082-1.989 3.371-4.165 3.535a5.465 5.465 0 01-5.015 3.293l1.64-5.215c1.692-5.363 2.555-5.726 6.547-5.726H20.7c-.457 2.043-2.043 3.586-4.785 4.113zm0 0" fill="#fff"/></g></svg>
